svg/首页.svg

<svg width="24" height="24" viewBox="0 0 24 24" fill="none" xmlns="http://www.w3.org/2000/svg"><path d="M4 11.9908V14.2223C4 17.1555 4 18.6221 4.91122 19.5333C5.82245 20.4446 7.28904 20.4446 10.2222 20.4446H13.7778C16.711 20.4446 18.1776 20.4446 19.0888 19.5333C20 18.6221 20 17.1555 20 14.2223V11.9908C20 10.4964 20 9.7492 19.6836 9.10237C19.3673 8.45555 18.7775 7.9968 17.5979 7.07931L15.8201 5.6966C13.985 4.26931 13.0674 3.55566 12 3.55566C10.9326 3.55566 10.015 4.26931 8.17992 5.6966L6.40215 7.07931L6.40214 7.07932C5.22252 7.9968 4.6327 8.45555 4.31635 9.10237C4 9.7492 4 10.4964 4 11.9908Z" stroke="#0D131A" stroke-width="1.33333" stroke-linecap="round" stroke-linejoin="round"/><path d="M14.6671 16.4443C13.9564 16.9975 13.0228 17.3332 12.0004 17.3332C10.978 17.3332 10.0444 16.9975 9.33374 16.4443" stroke="#0D131A" stroke-width="1.33333" stroke-linecap="round" stroke-linejoin="round"/></svg>

<svg fill="none" viewBox="0 0 24 24"><path stroke="#0D131A" stroke-linecap="round" stroke-linejoin="round" stroke-width="1.333" d="M4 11.99v2.232c0 2.934 0 4.4.911 5.311.911.912 2.378.912 5.311.912h3.556c2.933 0 4.4 0 5.31-.912.912-.91.912-2.378.912-5.31V11.99c0-1.495 0-2.242-.316-2.889-.317-.646-.907-1.105-2.086-2.023L15.82 5.697C13.985 4.269 13.067 3.556 12 3.556s-1.985.713-3.82 2.14L6.402 7.08h0c-1.18.918-1.77 1.377-2.086 2.023S4 10.496 4 11.991"/><path stroke="#0D131A" stroke-linecap="round" stroke-linejoin="round" stroke-width="1.333" d="M14.667 16.444a4.34 4.34 0 0 1-2.667.89 4.34 4.34 0 0 1-2.666-.89"/></svg>
